X: 1
T:The Gordon Highlanders Funeral March  "CYMRU"
M:C
L:1/8
Q:80
C:Funeral March
S:
K:HP
| {g}B2{GdGe}B3/2c/2{Gdc}d2{gdc}d2|
{gfg}fe{Gdc}de{gfg}f2{AGAG}A2|
{g}B2{GdGe}B3/2c/2{Gdc}d2{gdc}d2|  !
{gef}e2{A}e2{gfg}f4| |
{g}B2{GdGe}B3/2c/2{Gdc}d2{gdc}d2|
{gef}e2{Gdc}dc{gBd}B2{gfg}f2|  !
{g}Bc{g}dB{gfg}fe{gde}dc|
{gBd}B2{gfg}f3/2d/2{gBd}B4|] |
{g}B2{GdG}f2{gfg}fe{gef}ed|  !
{gfg}f2{gef}e3/2d/2{gcd}c2{g}B2|
{GdGe}B2{Gdc}d3/2e/2{gfg}f2{ag}a3/2g/2|
{fg}f2{gef}e3/2d/2{gBd}B4|1 |  !
{g}B2{GdG}f2{gfg}fe{gef}ed|
{gfg}f2{gef}e3/2d/2{gcd}c2{g}B2|
{GdGe}B2{Gdc}d3/2e/2{gfg}f2{ag}a3/2g/2|  !
{fg}f2{gef}e3/2d/2{gBd}B4:|2 |
{gf}g2{fg}fc{gef}e2{Gdc}d2|
{gf}g2{g}B{Gdc}d{gfg}f2{AGAG}A2|  !
{gf}g2{g}B2{Gdc}df{gef}ed|
{gcd}c2{g}B2{GdGe}B4|]
